!!!COM: Anonymous
!!!OPR: Missa Gross senen
!!!ONM: 1
!!!OTL: Kyrie
!!!AGN: Mass; Kyrie
!!!SCT: Ano1026a
!!!SCA: Ano1026a
!!!SMS: Trent 89
!!!folio-OPR:
!!!folio:
!!!voices: 4
**kern	**text	**kern	**text	**kern	**text	**kern	**text
*part4	*part4	*part3	*part3	*part2	*part2	*part1	*part1
*staff4	*staff4	*staff3	*staff3	*staff2	*staff2	*staff1	*staff1
*Ivox	*	*Ivox	*	*Ivox	*	*Ivox	*
*I"Bassus	*	*I"Tenor	*	*I"Altus	*	*I"Discantus	*
*I'B	*	*I'T	*	*I'A	*	*I'D	*
*>[A,B,C]	*>[A,B,C]	*>[A,B,C]	*>[A,B,C]	*>[A,B,C]	*>[A,B,C]	*>[A,B,C]	*>[A,B,C]
*>A	*>A	*>A	*>A	*>A	*>A	*>A	*>A
*clefF4	*	*clefGv2	*	*clefGv2	*	*clefG2	*
*k[b-e-]	*	*k[b-]	*	*k[b-]	*	*k[b-]	*
*g:	*	*d:	*	*d:	*	*d:	*
*M2/1	*	*M2/1	*	*M2/1	*	*M2/1	*
*met(C)	*	*met(C)	*	*met(C)	*	*met(C)	*
=1	=1	=1	=1	=1	=1	=1	=1
*	*	*rscale:1/2	*	*	*	*	*
!!section: Kyrie I
!!!OMD: Kyrie I
!	!	!LO:TX:Z=8:t=T&colon; "Notas duplicabus ad ymum" [double note values]	!	!	!	!	!
!	!	!LO:N:vis=0	!	!	!	!	!
0r	.	0r	.	[0G	Ky-	0g	Ky-
=2	=2	=2-	=2	=2	=2	=2	=2
0r	.	0ryy	.	1G]	.	1b-	.
.	.	.	.	1d	-ri-	2a	-ri-
.	.	.	.	.	.	4g	.
.	.	.	.	.	.	4f	.
=3	=3	=3	=3	=3	=3	=3	=3
!	!	!LO:N:vis=0	!	!	!	!	!
0r	.	0r	.	2c	-e e-	2e	-e
.	.	.	.	2B-	.	1d	.
.	.	.	.	2.d	.	.	.
.	.	.	.	.	.	[2f	e-
.	.	.	.	4c	.	.	.
=4	=4	=4-	=4	=4	=4	=4	=4
0r	.	0ryy	.	2.A	.	4f]	.
.	.	.	.	.	.	4g	.
.	.	.	.	.	.	2.a	.
.	.	.	.	4B-	.	.	.
.	.	.	.	2c	.	.	.
.	.	.	.	.	.	4g	.
.	.	.	.	2d	.	[2b-	-lei-
=5	=5	=5	=5	=5	=5	=5	=5
!	!	!LO:N:vis=0	!	!	!	!	!
0r	.	0r	.	1G	-lei-	4b-]	.
.	.	.	.	.	.	4a	.
.	.	.	.	.	.	2.g	.
.	.	.	.	1A	.	.	.
.	.	.	.	.	.	4f#Xi	.
.	.	.	.	.	.	4f#Xi	.
.	.	.	.	.	.	4e	.
=6	=6	=6-	=6	=6	=6	=6	=6
[0G	Ky-	0ryy	.	1G	-son,	0g	-son,
.	.	.	.	1r	.	.	.
=7	=7	=7	=7	=7	=7	=7	=7
0G]	.	0G	Ky-	1G	ky-	0r	.
.	.	.	.	1d	.	.	.
=8	=8	=8-	=8	=8	=8	=8	=8
!LO:TX:Z=12:t=MS&colon; f	!	!	!	!	!	!	!
1G	-ri-	1G	-ri-	2r	.	1d	ky-
.	.	.	.	2d	-ri-	.	.
[1E-	.	1G	-e	2.e-X	-e,	[1g	.
.	.	.	.	4d	.	.	.
=9	=9	=9	=9	=9	=9	=9	=9
2E-]	.	0B-	.	4B-	.	2g]	.
.	.	.	.	4c	.	.	.
2D	.	.	.	2d	.	2f	.
1E-	.	.	.	1G	.	1g	.
=10	=10	=10-	=10	=10	=10	=10	=10
1C	.	1c	e-	2r	.	1a	-ri-
.	.	.	.	2E	ky-	.	.
2BB-	-e	1d	.	2F	-ri-	1b-	.
[2GG	.	.	.	[2G	-e	.	.
=11	=11	=11	=11	=11	=11	=11	=11
2GG]	.	1B-	-lei-	4G]	.	1.g	-e
.	.	.	.	4F	.	.	.
2GG	e-	.	.	1D	.	.	.
1GG	-lei-	1G	.	.	.	.	.
.	.	.	.	[2d	e-	4f	.
.	.	.	.	.	.	4e	.
=12	=12	=12-	=12	=12	=12	=12	=12
0D	.	0A	.	4d]	.	1.f	.
.	.	.	.	4c	.	.	.
.	.	.	.	2A	.	.	.
.	.	.	.	1d	.	.	.
!	!	!	!	!	!	!LO:TX:Z=12a:t=MS&colon; b' dotted sb	!
.	.	.	.	.	.	4g	.
.	.	.	.	.	.	4a	.
=13	=13	=13	=13	=13	=13	=13	=13
1GG	.	1G	-son,	2B-	.	1b-	.
.	.	.	.	2.d	-lei-	.	.
[1D	.	1F	.	.	.	1a	e-
.	.	.	.	4c	.	.	.
.	.	.	.	[2A	.	.	.
=14	=14	=14-	=14	=14	=14	=14	=14
1D]	.	0D	.	2A]	.	1.f	-lei-
.	.	.	.	2.d	.	.	.
1F	.	.	.	.	.	.	.
.	.	.	.	4c	.	.	.
.	.	.	.	2A	.	2d	.
=15	=15	=15	=15	=15	=15	=15	=15
1G	.	1r	.	2B-	.	1d	-son,
.	.	.	.	2c	.	.	.
[1A	-son,	1D	ky-	1d	-son,	1r	.
=16	=16	=16-	=16	=16	=16	=16	=16
1A]	.	1F	.	1D	.	1d	ky-
!	!	!	!	!	!	!LO:TX:Z=12a:t=MS&colon; e'	!
1G	ky-	1G	.	2r	.	1g	.
.	.	.	.	[2d	ky-	.	.
=17	=17	=17	=17	=17	=17	=17	=17
0D	.	0A	.	2d]	.	1.f	.
.	.	.	.	2.d	-ri-	.	.
.	.	.	.	4c	.	.	.
.	.	.	.	2A	.	2e	.
=18	=18	=18-	=18	=18	=18	=18	=18
[0GG	-ri-	0G	-ri-	2B-	.	2g	.
.	.	.	.	2c	.	2a	.
.	.	.	.	1d	-e	[1b-	.
=19	=19	=19	=19	=19	=19	=19	=19
1GG]	.	0d	-e	1G	.	2b-]	.
.	.	.	.	.	.	2a	-ri-
1D	-e	.	.	1r	.	2a	-e
.	.	.	.	.	.	4g	.
.	.	.	.	.	.	4f	.
=20	=20	=20-	=20	=20	=20	=20	=20
1r	.	1c	e-	1A	e-	1e	.
1D	e-	1d	.	[1B-	-lei-	[1d	e-
=21	=21	=21	=21	=21	=21	=21	=21
0GG	-lei-	1B-	-lei-	2B-]	.	1d]	.
.	.	.	.	2G	.	.	.
.	.	1G	.	2B-	.	[1g	-lei-
.	.	.	.	[2d	.	.	.
=22	=22	=22-	=22	=22	=22	=22	=22
0D	.	0A	.	4d]	.	2g]	.
.	.	.	.	4c	.	.	.
.	.	.	.	2A	.	2f#Xi	.
.	.	.	.	[1d	-son,	2f#Xi	.
.	.	.	.	.	.	2e	.
=23	=23	=23	=23	=23	=23	=23	=23
1GG	-son,	0G	-son,	1d]	.	0g	-son,
1r	.	.	.	1r	.	.	.
=24	=24	=24-	=24	=24	=24	=24	=24
0G	ky-	0r	.	1G	ky-	0r	.
.	.	.	.	1B-	.	.	.
=25	=25	=25	=25	=25	=25	=25	=25
!	!	!LO:N:vis=0	!	!	!	!	!
1F	.	0r	.	2A	.	0r	.
.	.	.	.	2.d	.	.	.
1D	.	.	.	.	.	.	.
.	.	.	.	4c	.	.	.
.	.	.	.	2A	.	.	.
=26	=26	=26-	=26	=26	=26	=26	=26
2.E-	-ri-	0ryy	.	2G	.	0r	.
.	.	.	.	2.B-	-ri-	.	.
4D	.	.	.	.	.	.	.
1BB-	.	.	.	.	.	.	.
.	.	.	.	4A	.	.	.
.	.	.	.	4G	.	.	.
.	.	.	.	4F	.	.	.
=27	=27	=27	=27	=27	=27	=27	=27
!	!	!LO:N:vis=0	!	!	!	!	!
1C	-e	0r	.	1E-Xi	-e	0r	.
1BB-	.	.	.	1D	.	.	.
=28	=28	=28-	=28	=28	=28	=28	=28
1F	.	0ryy	.	2r	.	0r	.
.	.	.	.	2d	e-	.	.
2r	.	.	.	2c	.	.	.
2G	e-	.	.	[2B-	.	.	.
=29	=29	=29	=29	=29	=29	=29	=29
!	!	!LO:N:vis=0	!	!	!	!	!
1G	-lei-	0r	.	4B-]	.	0r	.
.	.	.	.	4G	.	.	.
.	.	.	.	2B-	.	.	.
2F	.	.	.	2A	-lei-	.	.
2E-	.	.	.	[2G	.	.	.
=30	=30	=30-	=30	=30	=30	=30	=30
1C	.	0ryy	.	2G]	.	0r	.
.	.	.	.	1c	.	.	.
1D	.	.	.	.	.	.	.
.	.	.	.	2B-	.	.	.
=31	=31	=31	=31	=31	=31	=31	=31
!	!	!LO:N:vis=0	!	!	!	!	!
2C	.	0r	.	2c	.	0r	.
2BB-	.	.	.	1d	.	.	.
2GG	.	.	.	.	.	.	.
[2G	.	.	.	2B-	.	.	.
=32	=32	=32-	=32	=32	=32	=32	=32
2G]	.	0ryy	.	2e-X	.	1r	.
2F	.	.	.	2d	.	.	.
1E-	-son,	.	.	2c	.	1g	ky-
.	.	.	.	4B-	.	.	.
.	.	.	.	4c	.	.	.
=33	=33	=33	=33	=33	=33	=33	=33
!	!	!LO:N:vis=0	!	!	!	!	!
2r	.	0r	.	1d	-son,	1f	.
2D	ky-	.	.	.	.	.	.
2E-	.	.	.	2r	.	2g	.
[2G	.	.	.	2G	ky-	[2b-	.
=34	=34	=34-	=34	=34	=34	=34	=34
2G]	.	0ryy	.	2B-	.	2b-]	.
2F	.	.	.	2c	.	2a	.
1D	.	.	.	1d	.	1f	.
=35	=35	=35	=35	=35	=35	=35	=35
!	!	!LO:N:vis=0	!	!	!	!	!
1C	.	0r	.	2.e-Xi	.	2.g	.
.	.	.	.	4d	.	4f	.
2D	.	.	.	2B-	.	2d	.
2C	.	.	.	[2c	.	[2e-X	.
=36	=36	=36-	=36	=36	=36	=36	=36
2E-	.	0ryy	.	2c]	.	4e-]	.
.	.	.	.	.	.	4d	.
2D	.	.	.	2B-	.	2B-	.
1C	-ri-	.	.	2G	-ri-	1c	-ri-
.	.	.	.	2A	.	.	.
=37	=37	=37	=37	=37	=37	=37	=37
!	!	!LO:N:vis=0	!	!	!	!	!
1BB-	-e	0r	.	1.B-	-e	1d	-e
1E-	.	.	.	.	.	1r	.
.	.	.	.	2c	.	.	.
=38	=38	=38-	=38	=38	=38	=38	=38
1D	.	1ryy	.	0d	.	1f	e-
[1GG	.	1G	ky-	.	.	1g	.
=39	=39	=39	=39	=39	=39	=39	=39
1GG]	.	1d	.	2r	.	1b-	.
.	.	.	.	2d	e-	.	.
1D	.	1d	-ri-	1f	.	2a	.
.	.	.	.	.	.	2b-	.
=40	=40	=40-	=40	=40	=40	=40	=40
1r	.	1c	-e	0e-X	-lei-	2.cc	-lei-
.	.	.	.	.	.	4b-	.
1C	e-	1c	e-	.	.	1g	.
=41	=41	=41	=41	=41	=41	=41	=41
0D	-lei-	1A	.	1d	-son,	1f	-son,
.	.	1A	-lei-	1r	.	2r	.
.	.	.	.	.	.	2f	ky-
=42	=42	=42-	=42	=42	=42	=42	=42
1.GG	.	1.G	.	1d	ky-	2g	.
.	.	.	.	.	.	1b-	.
.	.	.	.	2B-	.	.	.
2AA	.	2F	.	2c	.	2a	.
=43	=43	=43	=43	=43	=43	=43	=43
1BB-	-son,	0D	.	2.d	-ri-	2f	-ri-
.	.	.	.	.	.	2g	.
.	.	.	.	4c	.	.	.
1F	.	.	.	2A	.	2.a	-e
.	.	.	.	2B-	.	.	.
.	.	.	.	.	.	4g	.
=44	=44	=44-	=44	=44	=44	=44	=44
2r	.	0C	-son,	1.c	-e	1e	.
2G	ky-	.	.	.	.	.	.
1G	-ri-	.	.	.	.	2r	.
!	!	!	!	!LO:TX:Z=12:t=MS&colon; a	!	!	!
.	.	.	.	2G	.	2c	e-
=45	=45	=45	=45	=45	=45	=45	=45
1D	.	1F	e-	1A	.	2d	.
.	.	.	.	.	.	2f	.
2C	.	1G	.	1G	.	2.e	.
2GG	.	.	.	.	.	.	.
.	.	.	.	.	.	4d	.
=46	=46	=46-	=46	=46	=46	=46	=46
1D	-e	0A	.	1F	.	2.f	.
.	.	.	.	.	.	4e	.
2r	.	.	.	2r	.	1c	.
2F	e-	.	.	2F	e-	.	.
=47	=47	=47	=47	=47	=47	=47	=47
!	!	!	!	!LO:TX:Z=12:t=MS&colon; 2 m	!	!	!
2.E-	-lei-	0B-	-lei-	2.G	.	1.g	.
4D	.	.	.	4A	.	.	.
2.BB-	.	.	.	2B-	.	.	.
.	.	.	.	[2d	-lei-	2f	.
4C	.	.	.	.	.	.	.
=48	=48	=48-	=48	=48	=48	=48	=48
1D	.	1A	.	4d]	.	1f	.
.	.	.	.	4c	.	.	.
.	.	.	.	2A	.	.	.
1GG	.	[1G	.	1B-	.	[1e	-lei-
=49	=49	=49	=49	=49	=49	=49	=49
1C	.	2G]	.	1c	.	2e]	.
.	.	2F	.	.	.	2d	.
1D	.	1D	.	[1A	-son,	[1d	.
=50	=50	=50-	=50	=50	=50	=50	=50
0AA	.	0E	.	1A]	.	2d]	.
.	.	.	.	.	.	4c#Xi	.
.	.	.	.	.	.	4d	.
.	.	.	.	2r	.	2c#Xi	.
.	.	.	.	2A	ky-	4d	.
.	.	.	.	.	.	4Bni	.
=51	=51	=51	=51	=51	=51	=51	=51
1BB-	-son,	0D	-son,	2F	.	1d	-son,
.	.	.	.	2G	.	.	.
1r	.	.	.	1A	-ri-	2r	.
.	.	.	.	.	.	2d	ky-
=52	=52	=52-	=52	=52	=52	=52	=52
1BB-	ky-	1r	.	1D	-e	2f	.
.	.	.	.	.	.	2g	.
[1F	.	1D	ky-	1r	.	[1a	.
=53	=53	=53	=53	=53	=53	=53	=53
2F]	.	1A	.	0d	e-	2a]	.
2D	-ri-	.	.	.	.	2f	-ri-
1D	-e	1A	-ri-	.	.	1f	-e
=54	=54	=54-	=54	=54	=54	=54	=54
2C	e-	1c	-e	2e	.	2r	.
1F	.	.	.	2c	.	1a	e-
.	.	1c	e-	2f	.	.	.
[2C	.	.	.	2e	.	[2g	.
=55	=55	=55	=55	=55	=55	=55	=55
2C]	.	0G	-lei-	2c	.	2g]	.
2.GG	-lei-	.	.	2d	.	2.b-	-lei-
.	.	.	.	2.e	-lei-	.	.
4AA	.	.	.	.	.	4a	.
4BB-	.	.	.	.	.	2b-	.
4C	.	.	.	8dL	.	.	.
.	.	.	.	8eJ	.	.	.
=56	=56	=56-	=56	=56	=56	=56	=56
1D	-son,	0F	.	2.f	-son,	1a	-son,
.	.	.	.	4e	.	.	.
!	!	!	!	!	!	!LO:TX:Z=12:t=MS&colon; g'	!
2r	.	.	.	1c	.	1f	.
2F	ky-	.	.	.	.	.	.
=57	=57	=57	=57	=57	=57	=57	=57
1F	-ri-	0A	.	1r	.	1r	.
[1D	.	.	.	1d	ky-	[1f	ky-
=58	=58	=58-	=58	=58	=58	=58	=58
!	!	!	!	!LO:TX:Z=12:t=MS&colon; g	!	!	!
1D]	.	0d	.	1A	.	1f]	.
1G	.	.	.	2r	.	[1b-	.
.	.	.	.	2d	-ri-	.	.
=59	=59	=59	=59	=59	=59	=59	=59
1r	.	1c	.	1e	.	2b-]	.
.	.	.	.	.	.	2a	.
1F	.	1A	.	1f	.	1a	.
=60	=60	=60-	=60	=60	=60	=60	=60
0G	-e	0B-	.	1d	-e	1.g	-ri-
.	.	.	.	2r	.	.	.
.	.	.	.	2d	e-	2f	.
=61	=61	=61	=61	=61	=61	=61	=61
!	!	!	!	!	!	!LO:TX:Z=12:t=MS&colon; 3.5 sb lacking	!
2r	.	0A	-son,	2c	.	0a	-e
2D	e-	.	.	2.d	-lei-	.	.
1D	-lei-	.	.	.	.	.	.
.	.	.	.	4c	.	.	.
.	.	.	.	4A	.	.	.
.	.	.	.	4B-	.	.	.
=62	=62	=62-	=62	=62	=62	=62	=62
1E-	.	1r	.	1c	.	1g	e-
1D	-son,	1A	ky-	1d	-son,	2f	-lei-
.	.	.	.	.	.	[2a	.
=63	=63	=63	=63	=63	=63	=63	=63
0C	.	1c	.	1r	.	2a]	.
.	.	.	.	.	.	2g	.
.	.	1c	-ri-	1c	ky-	1e	.
=64	=64	=64-	=64	=64	=64	=64	=64
1r	.	0G	.	3%2dV	.	1d	-son,
.	.	.	.	3%2B-	.	.	.
1E-	ky-	.	.	.	.	1r	.
.	.	.	.	3%2GZ	.	.	.
=65	=65	=65	=65	=65	=65	=65	=65
!	!	!	!	!	!	!LO:TX:Z=24:t=MS&colon; 1sb 4m	!
1D	.	0d	-e	3.AV	.	3dV	ky-
.	.	.	.	.	.	3f	.
.	.	.	.	6G	.	.	.
.	.	.	.	3B-	.	3g	.
1F	.	.	.	3A	.	3a	.
.	.	.	.	3d	.	3%2b-Z	.
.	.	.	.	3B-Z	.	.	.
=66	=66	=66-	=66	=66	=66	=66	=66
0C	-ri-	0e-X	e-	3.cV	.	3%2gV	.
.	.	.	.	6B-	.	.	.
.	.	.	.	3%2G	.	3.cc	.
.	.	.	.	.	.	6b-	.
.	.	.	.	3%2cZ	-ri-	3%2gZ	.
=67	=67	=67	=67	=67	=67	=67	=67
1D	-e	0d	-lei-	1A	-e	3fV	.
.	.	.	.	.	.	3g	.
.	.	.	.	.	.	3a	.
2r	.	.	.	1D	.	3%2b-	.
2D	e-	.	.	.	.	.	.
.	.	.	.	.	.	[3aZ	.
=68	=68	=68-	=68	=68	=68	=68	=68
1A	.	1c	.	0r	.	6a]V	.
.	.	.	.	.	.	6g	.
.	.	.	.	.	.	3%2e	.
!	!	!	!	!	!	!LO:TX:Z=28:t=MS&colon; d'-f'	!
1D	.	1d	.	.	.	3%2f	.
.	.	.	.	.	.	[3aZ	-ri-
=69	=69	=69	=69	=69	=69	=69	=69
1G	.	1B-	.	3%2dV	e-	3a]V	.
.	.	.	.	.	.	3%2g	-e
.	.	.	.	3%2B-	.	.	.
1E-	.	1G	.	.	.	3b-	e-
.	.	.	.	3%2cZ	.	6cc	-lei-
.	.	.	.	.	.	6b-	.
.	.	.	.	.	.	6a	.
.	.	.	.	.	.	6gZ	.
=70	=70	=70-	=70	=70	=70	=70	=70
0D	-lei-	0A	.	2.d	-lei-	3fV	.
.	.	.	.	.	.	3g	.
.	.	.	.	.	.	3%2a	.
.	.	.	.	4c	.	.	.
.	.	.	.	1A	.	.	.
.	.	.	.	.	.	3f#Xi	.
.	.	.	.	.	.	3eZ	.
=71	=71	=71	=71	=71	=71	=71	=71
[0GGl	-son.	[0Gl	-son.	0B-	-son.	[0gl	-son.
=72	=72	=72-	=72	=72	=72	=72	=72
0GG]	.	0G]	.	0dl	.	0g]	.
!!LO:LB:i:g=z
*	*	*rscale:1	*	*	*	*	*
=73||	=73||	=73||	=73||	=73||	=73||	=73||	=73||
*>B	*>B	*>B	*>B	*>B	*>B	*>B	*>B
*clefF4	*	*clefGv2	*	*clefGv2	*	*clefG2	*
*k[b-e-]	*	*k[b-]	*	*k[b-]	*	*k[b-]	*
*M2/1	*	*M2/1	*	*M2/1	*	*M2/1	*
*met(C|)	*	*met(C|)	*	*met(C|)	*	*met(C|)	*
!!section: Christe
!!!OMD: Christe
0r	.	0r	.	0r	.	0g	Chri-
=74	=74	=74	=74	=74	=74	=74	=74
0r	.	0r	.	0r	.	1f	.
.	.	.	.	.	.	1g	.
=75	=75	=75	=75	=75	=75	=75	=75
0r	.	0r	.	0r	.	0a	-ste
=76	=76	=76	=76	=76	=76	=76	=76
0r	.	0r	.	0G	Chri-	1d	.
.	.	.	.	.	.	1b-	.
=77	=77	=77	=77	=77	=77	=77	=77
0r	.	0r	.	1F	.	1a	.
.	.	.	.	1G	.	1g	.
=78	=78	=78	=78	=78	=78	=78	=78
0r	.	0r	.	0A	-ste	1r	.
.	.	.	.	.	.	[1f	e-
=79	=79	=79	=79	=79	=79	=79	=79
0r	.	0r	.	1D	e-	2f]	.
.	.	.	.	.	.	2e	.
.	.	.	.	[1B-	-lei-	[1d	-lei-
=80	=80	=80	=80	=80	=80	=80	=80
0r	.	0r	.	2B-]	.	2d]	.
.	.	.	.	2A	.	2c	.
.	.	.	.	[1G	.	1B-	.
=81	=81	=81	=81	=81	=81	=81	=81
0r	.	0r	.	1G]	.	0A	.
.	.	.	.	1F#Xi	.	.	.
=82	=82	=82	=82	=82	=82	=82	=82
0r	.	0r	.	[0G	-son,	0G	-son,
=83	=83	=83	=83	=83	=83	=83	=83
0r	.	0r	.	0G]	.	1r	.
.	.	.	.	.	.	1d	Chri-
=84	=84	=84	=84	=84	=84	=84	=84
0r	.	0r	.	1r	.	1c	.
.	.	.	.	1G	Chri-	1B-	.
=85	=85	=85	=85	=85	=85	=85	=85
0r	.	0r	.	1F	.	1A	.
.	.	.	.	1E	.	2G	.
.	.	.	.	.	.	[2c	.
=86	=86	=86	=86	=86	=86	=86	=86
0r	.	0r	.	1D	.	2c]	.
.	.	.	.	.	.	2B-	.
.	.	.	.	1C	.	1e-X	.
=87	=87	=87	=87	=87	=87	=87	=87
0r	.	0r	.	1F	.	2d	.
.	.	.	.	.	.	2c	.
.	.	.	.	1E	.	[1c	.
=88	=88	=88	=88	=88	=88	=88	=88
0r	.	0r	.	0D	.	1c]	.
.	.	.	.	.	.	1Bni	.
=89	=89	=89	=89	=89	=89	=89	=89
0r	.	0r	.	0C	-ste,	[0c	-ste,
=90	=90	=90	=90	=90	=90	=90	=90
0r	.	0r	.	1r	.	0c]	.
.	.	.	.	1c	Chri-	.	.
=91	=91	=91	=91	=91	=91	=91	=91
0r	.	0r	.	1B-	.	1r	.
.	.	.	.	1c	.	1g	Chri-
=92	=92	=92	=92	=92	=92	=92	=92
0r	.	0r	.	1d	-ste	1f	.
.	.	.	.	2c	.	1g	.
.	.	.	.	2B-	.	.	.
=93	=93	=93	=93	=93	=93	=93	=93
0r	.	0r	.	1A	.	1a	-ste
.	.	.	.	1B-	.	2g	.
.	.	.	.	.	.	2f	.
=94	=94	=94	=94	=94	=94	=94	=94
0r	.	0r	.	1c	.	1e	.
.	.	.	.	1d	.	1f	.
=95	=95	=95	=95	=95	=95	=95	=95
0r	.	0r	.	1G	.	1g	.
.	.	.	.	1F	.	1a	.
=96	=96	=96	=96	=96	=96	=96	=96
0r	.	0r	.	1B-	.	1d	.
.	.	.	.	1A	e-	1c	e-
=97	=97	=97	=97	=97	=97	=97	=97
0r	.	0r	.	1.d	-lei-	1.f	-lei-
.	.	.	.	2c	.	2e	.
=98	=98	=98	=98	=98	=98	=98	=98
0r	.	0r	.	1A	.	1c	.
.	.	.	.	[1B-	.	1d	.
=99	=99	=99	=99	=99	=99	=99	=99
0r	.	0r	.	2B-]	.	0B-	-son,
.	.	.	.	2A	.	.	.
.	.	.	.	[1G	.	.	.
=100	=100	=100	=100	=100	=100	=100	=100
0r	.	0r	.	1G]	.	0A	.
.	.	.	.	1F#Xi	.	.	.
=101	=101	=101	=101	=101	=101	=101	=101
0r	.	0r	.	0G	-son,	1r	.
.	.	.	.	.	.	[1d	Chri-
=102	=102	=102	=102	=102	=102	=102	=102
0r	.	0r	.	1r	.	2d]	.
.	.	.	.	.	.	2c	.
.	.	.	.	[1G	Chri-	1B-	.
=103	=103	=103	=103	=103	=103	=103	=103
0r	.	0r	.	1G]	.	0A	.
.	.	.	.	1F	.	.	.
=104	=104	=104	=104	=104	=104	=104	=104
0r	.	0r	.	1B-	-ste	1G	.
.	.	.	.	1A	.	[1c	-ste
=105	=105	=105	=105	=105	=105	=105	=105
0r	.	0r	.	1F	.	2c]	.
.	.	.	.	.	.	2d	.
.	.	.	.	1G	.	[1e	.
=106	=106	=106	=106	=106	=106	=106	=106
0r	.	0r	.	1.A	.	2e]	.
.	.	.	.	.	.	2d	.
.	.	.	.	.	.	[1f	.
.	.	.	.	2G	.	.	.
=107	=107	=107	=107	=107	=107	=107	=107
0r	.	0r	.	1.B-	.	2f]	.
.	.	.	.	.	.	2e	.
.	.	.	.	.	.	[1g	.
.	.	.	.	2A	.	.	.
=108	=108	=108	=108	=108	=108	=108	=108
0r	.	0r	.	1.G	.	2g]	.
.	.	.	.	.	.	2f	.
.	.	.	.	.	.	1d	.
.	.	.	.	2F	.	.	.
=109	=109	=109	=109	=109	=109	=109	=109
0r	.	0r	.	1A	e-	1c	e-
.	.	.	.	[1G	-lei-	[1e	-lei-
=110	=110	=110	=110	=110	=110	=110	=110
0r	.	0r	.	1G]	.	2e]	.
.	.	.	.	.	.	2d	.
.	.	.	.	1F	.	[1d	.
=111	=111	=111	=111	=111	=111	=111	=111
0r	.	0r	.	0E	-son,	1d]	.
.	.	.	.	.	.	1c#Xi	.
=112	=112	=112	=112	=112	=112	=112	=112
0r	.	0r	.	1r	.	0d	-son,
.	.	.	.	1D	Chri-	.	.
=113	=113	=113	=113	=113	=113	=113	=113
0r	.	0r	.	1.G	.	1r	.
.	.	.	.	.	.	1d	Chri-
.	.	.	.	2F	.	.	.
=114	=114	=114	=114	=114	=114	=114	=114
0r	.	0r	.	1E	.	1.g	.
.	.	.	.	1D	.	.	.
.	.	.	.	.	.	2f	.
=115	=115	=115	=115	=115	=115	=115	=115
0r	.	0r	.	1C	.	0e	.
.	.	.	.	[1c	.	.	.
=116	=116	=116	=116	=116	=116	=116	=116
0r	.	0r	.	1c]	.	0d	.
.	.	.	.	1B-	.	.	.
=117	=117	=117	=117	=117	=117	=117	=117
0r	.	0r	.	0A	.	1c	.
.	.	.	.	.	.	[1f	.
=118	=118	=118	=118	=118	=118	=118	=118
0r	.	0r	.	0G	.	1f]	.
.	.	.	.	.	.	1e	.
=119	=119	=119	=119	=119	=119	=119	=119
0r	.	0r	.	1F	.	0d	.
.	.	.	.	[1B-	.	.	.
=120	=120	=120	=120	=120	=120	=120	=120
0r	.	0r	.	1B-]	.	0c	.
.	.	.	.	1A	.	.	.
=121	=121	=121	=121	=121	=121	=121	=121
0r	.	0r	.	0G	-ste	0B-	-ste
=122	=122	=122	=122	=122	=122	=122	=122
0r	.	0r	.	0F	.	1r	.
.	.	.	.	.	.	1d	e-
=123	=123	=123	=123	=123	=123	=123	=123
0r	.	0r	.	0E-X	.	1e-Xi	.
.	.	.	.	.	.	[1g	.
=124	=124	=124	=124	=124	=124	=124	=124
0r	.	0r	.	1r	.	2g]	.
.	.	.	.	.	.	2f	.
.	.	.	.	[1G	e-	[1b-	-lei-
=125	=125	=125	=125	=125	=125	=125	=125
0r	.	0r	.	2G]	.	2b-]	.
.	.	.	.	2F	.	2a	.
.	.	.	.	1G	.	[1g	.
=126	=126	=126	=126	=126	=126	=126	=126
0r	.	0r	.	0A	-lei-	1g]	.
.	.	.	.	.	.	1f#Xi	.
=127	=127	=127	=127	=127	=127	=127	=127
*	*	*	*	*M2/1	*	*	*
*	*	*	*	*met(3)	*	*	*
0r	.	0r	.	3%4G	-son,	3%4gV	-son,
.	.	.	.	3%2r	.	3%2dZ	Chri-
=128	=128	=128	=128	=128	=128	=128	=128
0r	.	0r	.	3%2G	Chri-	3%2eV	.
.	.	.	.	3%2A	.	3%4fZ	.
.	.	.	.	[3%2B-	-ste	.	.
=129	=129	=129	=129	=129	=129	=129	=129
0r	.	0r	.	3%2B-]	.	3%4dV	-ste
.	.	.	.	3%4G	.	.	.
.	.	.	.	.	.	3%2gZ	e-
=130	=130	=130	=130	=130	=130	=130	=130
0r	.	0r	.	3%2c	e-	3%2eV	.
.	.	.	.	3%2A	.	3%2f	.
.	.	.	.	3%2B-	.	3%2gZ	.
=131	=131	=131	=131	=131	=131	=131	=131
0r	.	0r	.	3%2c	.	3%4aV	.
.	.	.	.	3%4d	.	.	.
.	.	.	.	.	.	[3%2dZ	.
=132	=132	=132	=132	=132	=132	=132	=132
0r	.	0r	.	3%4G	.	3%2d]V	.
.	.	.	.	.	.	3%2.g	-lei-
.	.	.	.	[3%2c	-lei-	.	.
.	.	.	.	.	.	3fZ	.
=133	=133	=133	=133	=133	=133	=133	=133
0r	.	0r	.	3c]	.	3%2gV	.
.	.	.	.	3B-	.	.	.
.	.	.	.	3%2c	.	3%2a	.
.	.	.	.	3%2d	.	3%2b-Z	.
=134	=134	=134	=134	=134	=134	=134	=134
0r	.	0r	.	3%2e-Xi	.	3%2gV	.
.	.	.	.	3%2c	.	3%2a	.
.	.	.	.	3%2d	.	[3%2dZ	.
=135	=135	=135	=135	=135	=135	=135	=135
0r	.	0r	.	3%4G	.	3%2d]V	.
.	.	.	.	.	.	3%2.b-	.
.	.	.	.	3%2d	.	.	.
.	.	.	.	.	.	3ccZ	.
=136	=136	=136	=136	=136	=136	=136	=136
0r	.	0r	.	3%2B-	.	3b-V	.
.	.	.	.	.	.	6a	.
.	.	.	.	.	.	6g	.
.	.	.	.	3%4A	.	3%2.f#Xi	.
.	.	.	.	.	.	3eZ	.
=137	=137	=137	=137	=137	=137	=137	=137
0r	.	0r	.	3%4.Gl	-son.	0gl	-son.
!!LO:LB:i:g=z
=138||	=138||	=138||	=138||	=138||	=138||	=138||	=138||
*>C	*>C	*>C	*>C	*>C	*>C	*>C	*>C
*clefF4	*	*clefGv2	*	*clefGv2	*	*clefG2	*
*k[b-e-]	*	*k[b-]	*	*k[b-]	*	*k[b-]	*
*M2/1	*	*M2/1	*	*M2/1	*	*M2/1	*
*met(C|)	*	*met(C)	*	*met(C|)	*	*met(C|)	*
!!section: Kyrie II
!!!OMD: Kyrie II
*	*	*rscale:1/2	*	*	*	*	*
!	!	!LO:N:vis=0	!	!	!	!	!
[0G	Ky-	0r	.	0G	Ky-	[0g	Ky-
=139	=139	=139-	=139	=139	=139	=139	=139
1G]	.	0ryy	.	1B-	.	1g]	.
1A	.	.	.	1c	.	1e	.
=140	=140	=140	=140	=140	=140	=140	=140
!	!	!LO:N:vis=0	!	!	!	!	!
0D	-ri-	0r	.	0d	-ri-	0f	-ri-
=141	=141	=141-	=141	=141	=141	=141	=141
1C	.	0ryy	.	[0G	-e	1g	-e
1BB-	.	.	.	.	.	[1d	.
=142	=142	=142	=142	=142	=142	=142	=142
!	!	!LO:N:vis=0	!	!	!	!	!
0GG	.	0r	.	0G]	.	2d]	.
.	.	.	.	.	.	2e	.
.	.	.	.	.	.	2d	.
.	.	.	.	.	.	4c	.
.	.	.	.	.	.	4B-	.
=143	=143	=143-	=143	=143	=143	=143	=143
!	!	!LO:N:vis=0	!	!	!	!	!
0D	.	0ryy	.	0F	.	0A	.
=144	=144	=144	=144	=144	=144	=144	=144
0GG	-e,	0G	Ky-	1r	.	1G	e-
.	.	.	.	1G	e-	[1B-	-lei-
=145	=145	=145-	=145	=145	=145	=145	=145
0r	.	1G	-ri-	1.B-	-lei-	2B-]	.
.	.	.	.	.	.	2c	.
.	.	1G	-e	.	.	[1d	.
.	.	.	.	2c	.	.	.
=146	=146	=146	=146	=146	=146	=146	=146
0G	ky-	0B-	e-	0d	-son,	2d]	.
.	.	.	.	.	.	2e	.
.	.	.	.	.	.	2f	.
.	.	.	.	.	.	2g	.
=147	=147	=147-	=147	=147	=147	=147	=147
1C	.	1c	.	0r	.	2a	.
.	.	.	.	.	.	4g	.
.	.	.	.	.	.	4a	.
1BB-	.	1d	.	.	.	[1b-	.
=148	=148	=148	=148	=148	=148	=148	=148
0GG	-ri-	1B-	-lei-	[0d	e-	2b-]	.
.	.	.	.	.	.	2a	.
.	.	1G	.	.	.	[1g	.
=149	=149	=149-	=149	=149	=149	=149	=149
0D	-e	0A	.	0d]	.	1g]	.
.	.	.	.	.	.	1f	.
=150	=150	=150	=150	=150	=150	=150	=150
1r	.	1G	-son,	1B-	.	1b-	.
[1D	e-	1F	.	[1d	-lei-	[1a	.
=151	=151	=151-	=151	=151	=151	=151	=151
2D]	.	0D	.	2d]	.	2a]	.
2E-	.	.	.	2c	.	2g	.
1F	.	.	.	1A	.	2f	.
.	.	.	.	.	.	2e	.
=152	=152	=152	=152	=152	=152	=152	=152
1G	-lei-	1r	.	1B-	.	0d	-son,
1F	.	1D	e-	1A	.	.	.
=153	=153	=153-	=153	=153	=153	=153	=153
!	!	!	!	!	!	!LO:TX:Z=12:t=MS&colon; sb r	!
1D	.	1F	.	0d	-son,	0r	.
1GG	.	1G	.	.	.	.	.
=154	=154	=154	=154	=154	=154	=154	=154
0D	.	0A	.	1r	.	0f	e-
.	.	.	.	1d	e-	.	.
=155	=155	=155-	=155	=155	=155	=155	=155
[0GG	-son,	0G	.	0d	-lei-	1g	-lei-
.	.	.	.	.	.	[1b-	.
=156	=156	=156	=156	=156	=156	=156	=156
0GG]	.	0d	.	0G	.	2b-]	.
.	.	.	.	.	.	2a	.
.	.	.	.	.	.	2g	.
.	.	.	.	.	.	2f	.
=157	=157	=157-	=157	=157	=157	=157	=157
0r	.	1c	.	1A	-son,	1e	.
.	.	1d	.	1D	.	1f	.
=158	=158	=158	=158	=158	=158	=158	=158
0GG	ky-	1B-	-lei-	1r	.	1d	.
.	.	1G	.	[1d	ky-	[1g	.
=159	=159	=159-	=159	=159	=159	=159	=159
0D	.	0A	.	2d]	.	1g]	.
.	.	.	.	2c	.	.	.
.	.	.	.	1A	.	1f#Xi	.
=160	=160	=160	=160	=160	=160	=160	=160
0GG	.	0G	-son,	1.B-	.	0g	-son,
.	.	.	.	2c	.	.	.
=161	=161	=161-	=161	=161	=161	=161	=161
0G	.	0r	.	[0d	.	0r	.
=162	=162	=162	=162	=162	=162	=162	=162
!	!	!LO:N:vis=0	!	!	!	!	!
0F	.	0r	.	1d]	.	0r	.
.	.	.	.	1c	.	.	.
=163	=163	=163-	=163	=163	=163	=163	=163
0G	.	0ryy	.	1.B-	.	0r	.
.	.	.	.	4A	.	.	.
.	.	.	.	4G	.	.	.
=164	=164	=164	=164	=164	=164	=164	=164
!	!	!LO:N:vis=0	!	!	!	!	!
0D	.	0r	.	1.A	.	0r	.
.	.	.	.	4G	.	.	.
.	.	.	.	4F	.	.	.
=165	=165	=165-	=165	=165	=165	=165	=165
0C	-ri-	0ryy	.	0E	-ri-	0r	.
=166	=166	=166	=166	=166	=166	=166	=166
!	!	!LO:N:vis=0	!	!	!	!	!
1.D	-e	0r	.	1D	-e	0r	.
.	.	.	.	[1F	e-	.	.
2C	.	.	.	.	.	.	.
=167	=167	=167-	=167	=167	=167	=167	=167
!LO:TX:Z=12:t=MS&colon; 2 sb	!	!	!	!	!	!	!
1.AA	.	0ryy	.	2F]	.	0r	.
.	.	.	.	2G	.	.	.
.	.	.	.	[1A	.	.	.
2BB-	.	.	.	.	.	.	.
=168	=168	=168	=168	=168	=168	=168	=168
!	!	!LO:N:vis=0	!	!	!	!	!
1C	.	0r	.	2A]	.	0r	.
.	.	.	.	2G	.	.	.
1D	e-	.	.	[1B-	-lei-	.	.
=169	=169	=169-	=169	=169	=169	=169	=169
0GG	-lei-	0ryy	.	2B-]	.	0r	.
.	.	.	.	2c	.	.	.
.	.	.	.	2B-	.	.	.
.	.	.	.	4A	.	.	.
.	.	.	.	4G	.	.	.
=170	=170	=170	=170	=170	=170	=170	=170
!	!	!LO:N:vis=0	!	!	!	!	!
0AA	.	0r	.	1.F#Xi	.	0r	.
.	.	.	.	2E	.	.	.
=171	=171	=171-	=171	=171	=171	=171	=171
[0GG	-son,	0ryy	.	1G	.	0r	.
.	.	.	.	[1B-	.	.	.
=172	=172	=172	=172	=172	=172	=172	=172
!	!	!LO:N:vis=0	!	!	!	!	!
0GG]	.	0r	.	1B-]	.	0r	.
.	.	.	.	1G	.	.	.
=173	=173	=173-	=173	=173	=173	=173	=173
0r	.	0ryy	.	1.B-	.	[0d	ky-
.	.	.	.	2c	.	.	.
=174	=174	=174	=174	=174	=174	=174	=174
!	!	!LO:N:vis=0	!	!	!	!	!
0r	.	0r	.	1d	.	1d]	.
.	.	.	.	1e-Xi	.	1c	.
=175	=175	=175-	=175	=175	=175	=175	=175
0G	ky-	0ryy	.	0d	-son,	1B-	.
.	.	.	.	.	.	1G	.
=176	=176	=176	=176	=176	=176	=176	=176
!	!	!LO:N:vis=0	!	!	!	!	!
0F	.	0r	.	0r	.	0A	.
=177	=177	=177-	=177	=177	=177	=177	=177
1G	.	0ryy	.	0r	.	1G	.
[1B-	.	.	.	.	.	[1g	.
=178	=178	=178	=178	=178	=178	=178	=178
2B-]	.	1r	.	0r	.	2g]	.
2A	.	.	.	.	.	2f	.
1G	-ri-	1G	ky-	.	.	1g	.
=179	=179	=179-	=179	=179	=179	=179	=179
0D	-e,	1d	.	0f	ky-	1a	.
.	.	1d	-ri-	.	.	1b-	-ri-
=180	=180	=180	=180	=180	=180	=180	=180
0r	.	1c	-e	1e	.	2cc	-e
.	.	.	.	.	.	2b-	.
.	.	1c	e-	1c	.	2a	.
.	.	.	.	.	.	2g	.
=181	=181	=181-	=181	=181	=181	=181	=181
0D	ky-	1A	.	0d	.	0f	.
.	.	1A	-lei-	.	.	.	.
=182	=182	=182	=182	=182	=182	=182	=182
0GG	-ri-	1.G	.	0B-	-ri-	1r	.
.	.	.	.	.	.	1b-	e-
.	.	2F	.	.	.	.	.
=183	=183	=183-	=183	=183	=183	=183	=183
0F	-e	0D	.	1A	-e	1a	.
.	.	.	.	1B-	e-	2g	.
.	.	.	.	.	.	2f	.
=184	=184	=184	=184	=184	=184	=184	=184
1r	.	0C	-son,	1.c	-lei-	1e	.
1G	e-	.	.	.	.	1g	.
.	.	.	.	2B-	.	.	.
=185	=185	=185-	=185	=185	=185	=185	=185
1D	.	1F	e-	1A	.	1f	.
2C	.	1G	.	1G	.	2e	.
2BB-	.	.	.	.	.	2d	.
=186	=186	=186	=186	=186	=186	=186	=186
0AA	.	0A	.	1E	-son,	0c	.
.	.	.	.	1F	.	.	.
=187	=187	=187-	=187	=187	=187	=187	=187
0GG	-lei-	0B-	-lei-	0G	.	0g	.
=188	=188	=188	=188	=188	=188	=188	=188
1AA	.	1A	.	0r	.	1f	.
!	!	!LO:N:vis=2.	!	!	!	!	!
1C	.	[y1G	.	.	.	[1e	-lei-
=189	=189	=189-	=189	=189	=189	=189	=189
1GG	.	2G]yy	.	0B-	e-	2e]	.
.	.	2F	.	.	.	2d	.
1BB-	.	1D	.	.	.	[1d	.
=190	=190	=190	=190	=190	=190	=190	=190
0AA	.	0E	.	0A	.	1d]	.
.	.	.	.	.	.	1c#Xi	.
=191	=191	=191-	=191	=191	=191	=191	=191
[0BB-	-son,	0D	-son,	1F	.	[0d	-son,
.	.	.	.	[1B-	-lei-	.	.
=192	=192	=192	=192	=192	=192	=192	=192
0BB-]	.	1r	.	2B-]	.	0d]	.
.	.	.	.	2A	.	.	.
.	.	1D	ky-	1F	.	.	.
=193	=193	=193-	=193	=193	=193	=193	=193
0r	.	1A	.	0D	-son,	0r	.
.	.	1A	-ri-	.	.	.	.
=194	=194	=194	=194	=194	=194	=194	=194
0F	ky-	1c	-e	0r	.	0a	ky-
.	.	1c	e-	.	.	.	.
=195	=195	=195-	=195	=195	=195	=195	=195
1G	.	0G	-lei-	1d	ky-	0b-	.
1B-	.	.	.	1e	.	.	.
=196	=196	=196	=196	=196	=196	=196	=196
0A	.	0F	.	1.f	.	[0a	.
.	.	.	.	2e	.	.	.
=197	=197	=197-	=197	=197	=197	=197	=197
0F	-ri-	0A	.	1c	.	1a]	.
.	.	.	.	[1f	.	1f	.
=198	=198	=198	=198	=198	=198	=198	=198
0D	-e,	0d	.	2f]	.	1g	.
.	.	.	.	2d	.	.	.
.	.	.	.	1f	.	[1b-	.
=199	=199	=199-	=199	=199	=199	=199	=199
1r	.	1c	.	1e	.	2b-]	.
.	.	.	.	.	.	2a	.
1F	ky-	1A	.	[1d	.	[1a	.
=200	=200	=200	=200	=200	=200	=200	=200
0G	.	0B-	.	1d]	.	1a]	.
.	.	.	.	1d	-ri-	1g	-ri-
=201	=201	=201-	=201	=201	=201	=201	=201
0D	-ri-	0A	-son,	0d	-e,	0a	-e,
=202	=202	=202	=202	=202	=202	=202	=202
!	!	!	!	!LO:TX:Z=12:t=MS&colon; lacking	!	!	!
0F	-e,	1r	.	0A	.	0f	.
.	.	1A	ky-	.	.	.	.
=203	=203	=203-	=203	=203	=203	=203	=203
1r	.	1c	.	0r	.	1r	.
1F	ky-	1c	-ri-	.	.	1a	ky-
=204	=204	=204	=204	=204	=204	=204	=204
!	!	!	!	!LO:TX:Z=12:t=MS&colon; d'	!	!	!
0E-	.	0G	-e	3%4B-V	ky-	1.b-	.
.	.	.	.	3%2GZ	.	.	.
.	.	.	.	.	.	4a	.
.	.	.	.	.	.	4g	.
=205	=205	=205-	=205	=205	=205	=205	=205
0D	.	0d	.	3%2AV	.	2f	.
.	.	.	.	.	.	2g	.
.	.	.	.	3%4B-Z	-ri-	.	.
.	.	.	.	.	.	2a	.
.	.	.	.	.	.	2b-	.
=206	=206	=206	=206	=206	=206	=206	=206
0C	-ri-	0e-X	.	0c	-e	1g	.
.	.	.	.	.	.	1cc	-ri-
=207	=207	=207-	=207	=207	=207	=207	=207
0D	-e	0d	.	0r	.	2b-	-e
.	.	.	.	.	.	1a	.
.	.	.	.	.	.	4g	.
.	.	.	.	.	.	4f	.
=208	=208	=208	=208	=208	=208	=208	=208
1r	.	1c	e-	3%4AV	e-	1e	.
1D	e-	1d	.	.	.	1d	.
.	.	.	.	[3%2B-Z	.	.	.
=209	=209	=209-	=209	=209	=209	=209	=209
1G	-lei-	1B-	-lei-	3%2B-]V	.	1d	e-
.	.	.	.	3%4cZ	.	.	.
1E-	.	1G	.	.	.	[1g	-lei-
=210	=210	=210	=210	=210	=210	=210	=210
0D	.	0A	.	[0d	-lei-	2g]	.
.	.	.	.	.	.	4f#Xi	.
.	.	.	.	.	.	4g	.
.	.	.	.	.	.	2f#Xi	.
.	.	.	.	.	.	2e	.
=211	=211	=211-	=211	=211	=211	=211	=211
[0GGl	-son.	[0Gl	-son.	1d]	.	[0gl	-son.
.	.	.	.	1B-	.	.	.
=212	=212	=212	=212	=212	=212	=212	=212
0GG_	.	0G_	.	0B-	-son.	0g_	.
=213	=213	=213-	=213	=213	=213	=213	=213
0GG]	.	0G]	.	0dl	.	0g]	.
*	*	*rscale:1	*	*	*	*	*
==	==	==	==	==	==	==	==
*-	*-	*-	*-	*-	*-	*-	*-
!!!RDF**kern: l=long note in original notation
!!!RDF**kern: i = editorial accidental
!!!RDF**kern: V = start of tuplet marker
!!!RDF**kern: Z = end of tuplet marker
!!!ENC: Jesse Rodin and Emily Zazulia
!!!END: 2019/02/01/
!!!EED: Jesse Rodin
!!!EEV: 2019/02/21/
!!!ONB: Translated from MusicXML and edited on 2019/02/21 by Craig Sapp
!!muse2ps: T^@{OPR}^u^@{ONM}{. }@{OTL}^C^@{COM}\n@{SMS}^v90,90,90,130i2c130z18l2650
